X: 56
T: Smiłuj się, Panie, czasu mego niepokoja,
C: Mikołaj Gomółka
%%abc-version 2.0
%%abcx-abcm2ps-target-version 5.9.1 (29 Sep 2008)
%%abc-creator hum2abc beta
%%abcx-conversion-date 2021/10/04 07:59:10
%%abc-edited-by Marta Lawrence
%%abcx-initial-encoding-date 2020-02-12
%%humdrum-veritas 2334199284
%%humdrum-veritas-data 2119777507
%%linebreak <none>
%%barnumbers 0
L: 1/4
M: C|
N: Derived from pl-wn--sd-xvi-qu-273--057_gomolka-mikolaj--smiluj-sie-panie-czasu-mego-niepokoja.krn
%%staves [1 2 3 4]
V: 1
V: 2 clef=alto
V: 3 clef=tenor
V: 4 clef=bass
K: C
[V:1] E8 [|] 
[V:2] B,8 [|] 
[V:3] E,8 [|] 
[V:4] E,8 [|] 
[V:1] B2B2c6 [|] 
[V:2] E2E2C3B, [|] 
[V:3] G,2G,2A,6 [|] 
[V:4] E,2E,2A,,6 [|] 
[V:1] B2A2A2 [|] 
[V:2] CDE4E2 [|] 
[V:3] B,2C4 [|] 
[V:4] ^G,,2A,,B,,C,D, [|] 
[V:1] ^G4A3^F [|] 
[V:2] E2E2C2F2 [|] 
[V:3] B,2B,2A,2DC [|] 
[V:4] E,2E,2F,2D,2 [|] 
[V:1] ^GA2=GA2E2 [|] 
[V:2] EFED^C2A,2 [|] 
[V:3] B,A,B,2A,2C2 [|] 
[V:4] E,4A,,2A,2 [|] 
[V:1] E2E2=F2E2 [|] 
[V:2] A,2^G,2A,2E2 [|] 
[V:3] E2>D2C2B,2 [|] 
[V:4] C2B,2A,2^G,2 [|] 
[V:1] E2>F2GFE4 [|] 
[V:2] =C2>D2E2=G,2 [|] 
[V:3] C2A,2B,2B,2 [|] 
[V:4] A,4E,2=G,2 [|] 
[V:1] D2E2B2 [|] 
[V:2] A,4B,2E2 [|] 
[V:3] A,4^G,2B,2 [|] 
[V:4] F,2F,2E,2E,2 [|] 
[V:1] B2A2G3F [|] 
[V:2] F2CDE4 [|] 
[V:3] D2A,2C4 [|] 
[V:4] D,2F,2E,4 [|] 
[V:1] GAB2A4 [|] 
[V:2] E2G2E2E2 [|] 
[V:3] B,2E2CB,CD [|] 
[V:4] E,2E,2A,G,A,B, [|] 
[V:1] G2>A2B2c4 [|] 
[V:2] C4G2E2 [|] 
[V:3] E4D2C2 [|] 
[V:4] C2C,2G,2A,2 [|] 
[V:1] B2c3B [|] 
[V:2] A2GFE2E2 [|] 
[V:3] D4C2C2 [|] 
[V:4] F,2G,2A,2A,,3 [|] 
[V:1] A2G2F2E4 [|] 
[V:2] E2>D2C2B,2 [|] 
[V:3] C2=G,2A,2G,2 [|] 
[V:4] B,,C,2F,,2=G,,2 [|] 
[V:1] D2E3D [|] 
[V:2] A,4G,2CB, [|] 
[V:3] F,4E,2A,2 [|] 
[V:4] A,,G,,A,,B,,C,2A,,2 [|] 
[V:1] EFG2F2E4 [|] 
[V:2] CDEDC2C2 [|] 
[V:3] G,2E,2A,2G,2 [|] 
[V:4] E,D,C,B,,A,,B,,C,2 [|] 
[V:1] D2E4 [|] 
[V:2] A,2>B,2C4 [|] 
[V:3] F,4E,4 [|] 
[V:4] D,4A,,4 [|] 
[V:1] _d32 |]  
[V:2] B,32 |]  
[V:3] _d32 |]  
[V:4] E,,32 |]  


